!!!COM:	Busnoys, Antoine
!!!CDT:	~1430///-1492/11/06
!!!OTL:	Pucellotte que dieu vous gart
!!!AGN:	Song; Chanson
!!!SCT:	Bus3048
!!!SCA:	Bus3048
!!!voices:	3
**kern	**kern	**kern
*staff3	*staff2	*staff1
*Ivox	*Ivox	*Ivox
*I"Contra	*I"Tenor	*I"Superius
*I'C	*I'T	*I'S
*>[A,B]	*>[A,B]	*>[A,B]
*>A	*>A	*>A
*clefF4	*clefGv2	*clefG2
*k[]	*k[b-]	*k[]
*M2/1	*M2/1	*M2/1
*met(C|)	*met(C|)	*met(C|)
=1-	=1-	=1-
!!LO:TX:Z=18:t=Ballade
0r	0r	1d
.	.	2d
.	.	2d
=2	=2	=2
0r	1G	1.g
.	2G	.
.	2G	2g
=3	=3	=3
0r	1.c	2a
.	.	4g
.	.	4f
.	.	2e
.	2c	2e
=4	=4	=4
1D	2d	2d
.	4c	2.g
.	4B-	.
2D	2A	.
.	.	4f#i
2D	2A	4f#i
.	.	4e
=5	=5	=5
1.G	2G	1g
.	1d	.
.	.	1b
2G	2e	.
=6	=6	=6
2A	2f	2a
4G	4e	2.cc
4F	4d	.
2E	1c#	.
.	.	4b
2E	.	4a
.	.	4g
=7	=7	=7
0D	1d	1f
.	2d	1r
.	2d	.
=8	=8	=8
1r	1.f	1a
1D	.	2a
.	2f	2a
=9	=9	=9
0A	2e	1.cc
.	2f	.
.	2g	.
.	2e	2cc
=10	=10	=10
2G	0d	2b
2A	.	2cc
2.B-	.	2dd
.	.	2b
4G	.	.
=11	=11	=11
2.A	1c	1a
4F	.	.
1G	1r	1g
!!LO:LB:i:g=z
=12:|!|:	=12:|!|:	=12:|!|:
*>B	*>B	*>B
*clefF4	*clefGv2	*clefG2
*k[]	*k[b-]	*k[]
*M2/1	*M2/1	*M2/1
*met(C|)	*met(C|)	*met(C|)
1A	0r	1r
2A	.	1cc
2A	.	.
=13	=13	=13
1.c	0r	2a
.	.	2a
.	.	[1g
2c	.	.
=14	=14	=14
2B	0r	2g]
2c	.	2a
2d	.	1b
2B	.	.
=15	=15	=15
1A	0r	1cc
1G	.	1dd
=16	=16	=16
2r	1f	1a
2F	.	.
1G	2d	1r
.	2d	.
=17	=17	=17
1C	1.c	1r
1r	.	1a
.	2d	.
=18	=18	=18
1c	1e	2g
.	.	2.cc
2A	1f	.
.	.	4dd
2A	.	2ff
=19	=19	=19
1G	1g	2ee
.	.	4dd
.	.	4cc
2G	2d	2b
2A	[2f	2a
=20	=20	=20
1B	2f]	1dd
.	1g	.
1c	.	1g
.	2f	.
=21	=21	=21
1d	2d	1r
.	2.f	.
2A	.	1a
.	4e	.
2d	2f	.
=22	=22	=22
2e	2c	2g
1d	2d	2f
.	1A	1e
2c	.	.
=23	=23	=23
2d	1r	1d
2G	.	.
2r	1d	1f
2D	.	.
=24	=24	=24
2E	2c	1g
1G	2B-	.
.	1A	2a
2F#i	.	2cc
=25	=25	=25
1G	1G	2b-i
.	.	4a
.	.	4g
1r	1B-	2f
.	.	[2g
=26	=26	=26
1A	1c	2g]
.	.	2f
2G	1d	2g
2F	.	[2d
=27	=27	=27
1E	2r	2d]
.	2g	2c
1D	2f	2d
.	[2d	[2a
=28	=28	=28
1F	4d]	4a]
.	4c	4b
.	2A	2cc
1G	2B-	2b-i
.	4A	[2dd
.	4G	.
=29	=29	=29
1A	1F	4dd]
.	.	4cc
.	.	2a
2G	2r	1b-i
2E	2G	.
=30	=30	=30
2.F	2.A	1a
4G	4B-	.
2A	2c	1r
[2G	2d	.
=31	=31	=31
2G]	2e	1r
4F	2e	.
4E	.	.
1D	2.f	2r
.	.	2d
.	4e	.
=32	=32	=32
0r	0c	2.e
.	.	4f
.	.	2g
.	.	2a
=33	=33	=33
2r	1d	2b
2D	.	2b
2E	1c	2.cc
2F	.	.
.	.	4b
=34	=34	=34
2.G	1e	[0gl
4A	.	.
2B-	1d	.
2B-i	.	.
=35	=35	=35
2.c	0e	0g_
4B-i	.	.
[1Gl	.	.
=36	=36	=36
0G]	0dl	0g]
==:|!	==:|!	==:|!
*-	*-	*-
!!!RDF**kern: l=long note in original notation
!!!RDF**kern: i=editorial accidental
!!!ENC:	Chris Gage 04-13-2015
!!!END:	2015/05/12/
!!!EED:	Jesse Rodin
!!!EEV:	2015/09/21/
!!!ONB:	Translated from MusicXML and edited on 2015/09/21/ by Craig Sapp
!!muse2ps: C^@{COM}^i2I150v95,95,150Q16
